packages/kaspersky-hexa-ui-icons/src/iconsSVGs/48/HomeDevice.svg

<svg xmlns="http://www.w3.org/2000/svg" width="48" height="48" fill="none" viewBox="0 0 48 48"><path fill="currentColor" fill-rule="evenodd" d="m7.351 14.601 1.298 1.521L11 14.117V32h26V14.117l2.351 2.005 1.298-1.521L24 .396zM13 30h22V12.41L24 3.025 13 12.41z" clip-rule="evenodd"/><path fill="currentColor" d="M23 34c0-.55.45-1 1-1s1 .45 1 1-.45 1-1 1-1-.45-1-1"/><path fill="currentColor" fill-rule="evenodd" d="M20 44c0-2.206 1.794-4 4-4s4 1.794 4 4-1.794 4-4 4-4-1.794-4-4m2 0c0 1.103.897 2 2 2s2-.897 2-2-.897-2-2-2-2 .897-2 2" clip-rule="evenodd"/><path fill="currentColor" d="M24 37c-.55 0-1 .45-1 1s.45 1 1 1 1-.45 1-1-.45-1-1-1m24 7c0 .27-.101.52-.29.71-.101.09-.21.16-.33.21s-.25.08-.38.08-.26-.03-.38-.08q-.18-.075-.33-.21c-.19-.19-.29-.44-.29-.71 0-.13.029-.26.08-.38.05-.13.12-.23.21-.33.37-.37 1.05-.37 1.42 0q.135.15.21.33c.059.12.08.25.08.38m-13 1c.55 0 1-.45 1-1s-.45-1-1-1-1 .45-1 1 .45 1 1 1m5-1c0 .55-.45 1-1 1-.561 0-1-.45-1-1s.439-1 1-1c.55 0 1 .45 1 1m3 1c.55 0 1-.45 1-1s-.45-1-1-1-1 .45-1 1 .45 1 1 1m-11-1c0 .55-.45 1-1 1s-1-.45-1-1 .45-1 1-1 1 .45 1 1M9 45c.55 0 1-.45 1-1s-.45-1-1-1-1 .45-1 1 .45 1 1 1m-3-1c0 .55-.45 1-1 1s-1-.45-1-1 .45-1 1-1 1 .45 1 1m7 1c.55 0 1-.45 1-1s-.45-1-1-1-1 .45-1 1 .45 1 1 1m5-1c0 .55-.45 1-1 1s-1-.45-1-1 .45-1 1-1 1 .45 1 1M2 44c0-.13-.03-.26-.08-.38q-.075-.18-.21-.33c-.28-.27-.72-.36-1.09-.21q-.195.075-.33.21-.135.15-.21.33c-.06.12-.08.25-.08.38s.02.26.069.38c.061.12.131.229.221.33q.15.135.33.21c.12.059.25.08.38.08.27 0 .52-.101.71-.29.189-.19.29-.44.29-.71"/></svg>

<svg width="48" height="48" viewBox="0 0 48 48" fill="none" xmlns="http://www.w3.org/2000/svg">
<path fill-rule="evenodd" clip-rule="evenodd" d="M7.351 14.601L8.649 16.122L11 14.117V32H37V14.117L39.351 16.122L40.649 14.601L24 0.395996L7.351 14.601ZM13 30H35V12.41L24 3.025L13 12.41V30Z"  fill="currentColor"/>
<path d="M23 34C23 33.45 23.45 33 24 33C24.55 33 25 33.45 25 34C25 34.55 24.55 35 24 35C23.45 35 23 34.55 23 34Z"  fill="currentColor"/>
<path fill-rule="evenodd" clip-rule="evenodd" d="M20 44C20 41.794 21.794 40 24 40C26.206 40 28 41.794 28 44C28 46.206 26.206 48 24 48C21.794 48 20 46.206 20 44ZM22 44C22 45.103 22.897 46 24 46C25.103 46 26 45.103 26 44C26 42.897 25.103 42 24 42C22.897 42 22 42.897 22 44Z"  fill="currentColor"/>
<path d="M24 37C23.45 37 23 37.45 23 38C23 38.55 23.45 39 24 39C24.55 39 25 38.55 25 38C25 37.45 24.55 37 24 37Z"  fill="currentColor"/>
<path d="M48 44C48 44.27 47.899 44.52 47.71 44.71C47.609 44.8 47.5 44.87 47.38 44.92C47.26 44.97 47.13 45 47 45C46.87 45 46.74 44.97 46.62 44.92C46.5 44.87 46.39 44.8 46.29 44.71C46.1 44.52 46 44.27 46 44C46 43.87 46.029 43.74 46.08 43.62C46.13 43.49 46.2 43.39 46.29 43.29C46.66 42.92 47.34 42.92 47.71 43.29C47.8 43.39 47.87 43.5 47.92 43.62C47.979 43.74 48 43.87 48 44Z"  fill="currentColor"/>
<path d="M35 45C35.55 45 36 44.55 36 44C36 43.45 35.55 43 35 43C34.45 43 34 43.45 34 44C34 44.55 34.45 45 35 45Z"  fill="currentColor"/>
<path d="M40 44C40 44.55 39.55 45 39 45C38.439 45 38 44.55 38 44C38 43.45 38.439 43 39 43C39.55 43 40 43.45 40 44Z"  fill="currentColor"/>
<path d="M43 45C43.55 45 44 44.55 44 44C44 43.45 43.55 43 43 43C42.45 43 42 43.45 42 44C42 44.55 42.45 45 43 45Z"  fill="currentColor"/>
<path d="M32 44C32 44.55 31.55 45 31 45C30.45 45 30 44.55 30 44C30 43.45 30.45 43 31 43C31.55 43 32 43.45 32 44Z"  fill="currentColor"/>
<path d="M9 45C9.55 45 10 44.55 10 44C10 43.45 9.55 43 9 43C8.45 43 8 43.45 8 44C8 44.55 8.45 45 9 45Z"  fill="currentColor"/>
<path d="M6 44C6 44.55 5.55 45 5 45C4.45 45 4 44.55 4 44C4 43.45 4.45 43 5 43C5.55 43 6 43.45 6 44Z"  fill="currentColor"/>
<path d="M13 45C13.55 45 14 44.55 14 44C14 43.45 13.55 43 13 43C12.45 43 12 43.45 12 44C12 44.55 12.45 45 13 45Z"  fill="currentColor"/>
<path d="M18 44C18 44.55 17.55 45 17 45C16.45 45 16 44.55 16 44C16 43.45 16.45 43 17 43C17.55 43 18 43.45 18 44Z"  fill="currentColor"/>
<path d="M2 44C2 43.87 1.97 43.74 1.92 43.62C1.87 43.5 1.8 43.39 1.71 43.29C1.43 43.02 0.99 42.93 0.62 43.08C0.49 43.13 0.38 43.2 0.29 43.29C0.2 43.39 0.13 43.5 0.08 43.62C0.02 43.74 0 43.87 0 44C0 44.13 0.02 44.26 0.069 44.38C0.13 44.5 0.2 44.609 0.29 44.71C0.39 44.8 0.5 44.87 0.62 44.92C0.74 44.979 0.87 45 1 45C1.27 45 1.52 44.899 1.71 44.71C1.899 44.52 2 44.27 2 44Z"  fill="currentColor"/>
</svg>
